packages/astro-components-stencil/src/icons/power.svg

<svg xmlns="http://www.w3.org/2000/svg" viewBox="0 0 24 24"><g xmlns="http://www.w3.org/2000/svg" id="power" fill-rule="nonzero">
            <path d="M16.01 7L16 4c0-.55-.45-1-1-1s-1 .45-1 1v3h-4V4c0-.55-.45-1-1-1s-1 .45-1 1v3h-.01C6.9 7 6 7.9 6 8.99v4.66c0 .53.21 1.04.58 1.41L9.5 18v2c0 .55.45 1 1 1h3c.55 0 1-.45 1-1v-2l2.92-2.92c.37-.38.58-.89.58-1.42V8.99C18 7.89 17.11 7 16.01 7z"/>
        </g></svg>

<svg width="24" height="24" viewBox="0 0 24 24" fill="none" xmlns="http://www.w3.org/2000/svg">
<path d="M16.01 7L16 4C16 3.45 15.55 3 15 3C14.45 3 14 3.45 14 4V7H10V4C10 3.45 9.55 3 9 3C8.45 3 8 3.45 8 4V7H7.99C6.9 7 6 7.9 6 8.99V13.65C6 14.18 6.21 14.69 6.58 15.06L9.5 18V20C9.5 20.55 9.95 21 10.5 21H13.5C14.05 21 14.5 20.55 14.5 20V18L17.42 15.08C17.79 14.7 18 14.19 18 13.66V8.99C18 7.89 17.11 7 16.01 7Z" fill="black"/>
</svg>
